Extension/src/pages/assets/icons/empty.svg

<?xml version="1.0" encoding="UTF-8"?>
<svg width="81px" height="104px" viewBox="0 0 81 104" version="1.1" xmlns="http://www.w3.org/2000/svg" xmlns:xlink="http://www.w3.org/1999/xlink">
    <!-- Generator: Sketch 55.2 (78181) - https://sketchapp.com -->
    <title>empty</title>
    <desc>Created with Sketch.</desc>
    <g id="Page-1" stroke="none" stroke-width="1" fill="none" fill-rule="evenodd">
        <g id="empty" transform="translate(1.000000, 2.000000)">
            <rect id="Rectangle-8" fill="#99EAA8" fill-rule="nonzero" x="12.5731511" y="90.6910702" width="40" height="10.4245283" rx="5.21226415"></rect>
            <ellipse id="Oval-2" fill="#3B3B3B" fill-rule="nonzero" cx="7.70197656" cy="61.2543539" rx="1.60772358" ry="1.63215896"></ellipse>
            <ellipse id="Oval-2" fill="#3B3B3B" fill-rule="nonzero" cx="66.0993837" cy="45.7820866" rx="1.60772358" ry="1.63215896"></ellipse>
            <ellipse id="Oval-4" stroke="#3B3B3B" stroke-width="2.4" cx="61.6769715" cy="7.96693396" rx="7.73434773" ry="7.85190011"></ellipse>
            <ellipse id="Oval-4" stroke="#3B3B3B" stroke-width="2.4" cx="76.1034755" cy="27.3248197" rx="2.57235772" ry="2.61145433"></ellipse>
            <path d="M8.25989762,35.9026387 L57.5031049,35.9026387" id="Line" stroke="#3B3B3B" stroke-width="2.4" stroke-linecap="square"></path>
            <path d="M25.7687677,54.0385167 C25.7856586,53.9373738 26.0099575,54.3072281 25.7687677,55.0043234 L25.7687677,83.2126133 C25.7687677,84.3171828 26.6641982,85.2126133 27.7687677,85.2126133 C28.152271,85.2126133 28.5276883,85.1023526 28.8502829,84.8949703 L40,78 L40,77 L39.2900615,55.0043234 C39.0486252,54.3072281 39.2729241,53.9373738 39.2900615,54.0385167 L63.7368383,30.4347322 C64.5314672,29.6675043 64.5536801,28.4013692 63.7864522,27.6067403 C63.4095644,27.2163923 62.8902503,26.9959293 62.3476493,26.9959293 L2.71117996,26.9959293 C1.60661046,26.9959293 0.711179959,27.8913598 0.711179959,28.9959293 C0.711179959,29.5385304 0.93164291,30.0578445 1.32199093,30.4347322 L25.7687677,54.0385167 Z" id="Shape" stroke="#3B3B3B" stroke-width="2.4" stroke-linejoin="round"></path>
        </g>
    </g>
</svg>

<svg height="104" viewBox="0 0 81 104" width="81" xmlns="http://www.w3.org/2000/svg"><g fill="none" fill-rule="evenodd" transform="translate(1 2)"><rect fill="#99eaa8" fill-rule="nonzero" height="10.424528" rx="5.212264" width="40" x="12.573151" y="90.69107"/><ellipse cx="7.701977" cy="61.254354" fill="#3b3b3b" fill-rule="nonzero" rx="1.607724" ry="1.632159"/><ellipse cx="66.099384" cy="45.782087" fill="#3b3b3b" fill-rule="nonzero" rx="1.607724" ry="1.632159"/><g stroke="#3b3b3b" stroke-width="2.4"><ellipse cx="61.676972" cy="7.966934" rx="7.734348" ry="7.8519"/><ellipse cx="76.103476" cy="27.32482" rx="2.572358" ry="2.611454"/><path d="m8.25989762 35.9026387h49.24320728" stroke-linecap="square"/><path d="m25.7687677 54.0385167c.0168909-.1011429.2411898.2687114 0 .9658067v28.2082899c0 1.1045695.8954305 2 2 2 .3835033 0 .7589206-.1102607 1.0815152-.317643l11.1497171-6.8949703v-1l-.7099385-21.9956766c-.2414363-.6970953-.0171374-1.0669496 0-.9658067l24.4467768-23.6037845c.7946289-.7672279.8168418-2.033363.0496139-2.8279919-.3768878-.390348-.8962019-.610811-1.4388029-.610811h-59.63646934c-1.1045695 0-2 .8954305-2 2 0 .5426011.22046295 1.0619152.61081097 1.4388029z" stroke-linejoin="round"/></g></g></svg>
